dist/svg/network-configuration.svg

<svg width="16" height="16" viewBox="0 0 16 16" fill="rgb(34, 34, 34)" xmlns="http://www.w3.org/2000/svg"><title>network-configuration</title><g clip-path="url(#clip0_281_990)"><path d="M8.022 14.999C8.015 14.999 8.008 15 8 15C7.836 15 7.676 14.987 7.514 14.976C7.11 14.146 6.758 13.173 6.509 12.161L6.488 12.058C6.658 12.043 6.832 12.045 7.004 12.034C7.004 12.022 7.001 12.011 7.001 12C7.001 11.671 7.037 11.352 7.098 11.041C6.826 11.054 6.548 11.055 6.281 11.078C6.14 10.318 6.047 9.42899 6.023 8.52299V8.49999C6.023 8.49999 7.326 8.49999 8.436 8.49999C8.843 8.08599 9.327 7.75299 9.857 7.49999H6.024C6.047 6.60899 6.137 5.75599 6.283 4.92199C6.846 4.97099 7.417 4.99999 8.001 4.99999C8.585 4.99999 9.157 4.97099 9.72 4.92199C9.859 5.66999 9.95 6.54399 9.975 7.43499C10.287 7.29599 10.614 7.18499 10.956 7.11199C10.921 6.27999 10.845 5.46999 10.712 4.68099L10.728 4.79499C11.843 4.63899 12.839 4.39899 13.798 4.08499C14.46 5.04699 14.889 6.21499 14.98 7.47699L14.981 7.49899H14.143C14.852 7.83699 15.461 8.33699 15.938 8.95099C15.975 8.63799 16 8.32099 16 7.99899C16 3.58099 12.418 -0.00100708 8 -0.00100708C3.582 -0.00100708 0 3.58099 0 7.99899C0 12.417 3.582 15.999 8 15.999C8.323 15.999 8.64 15.974 8.952 15.937C8.601 15.665 8.289 15.352 8.021 14.998L8.022 14.999ZM13.923 4.04999L13.798 4.08499C13.838 4.07199 13.882 4.06399 13.923 4.04999ZM9.717 1.21999C11.064 1.56899 12.216 2.26999 13.107 3.21799L13.11 3.22199C12.386 3.45999 11.517 3.66599 10.623 3.79899L10.533 3.80999C10.305 2.80799 10.025 1.94299 9.677 1.11299L9.717 1.21999ZM7.516 1.02399C7.677 1.01299 7.836 0.999993 8 0.999993C8.164 0.999993 8.325 1.01399 8.486 1.02399C8.89 1.85499 9.242 2.82699 9.49 3.83999L9.511 3.94199C9.013 3.98499 8.51 4.01099 8 4.01099C7.49 4.01099 6.987 3.98499 6.49 3.94099C6.751 2.86099 7.093 1.91799 7.516 1.02399ZM6.233 1.23199L6.282 1.22099L6.283 1.21999C5.976 1.94299 5.695 2.80799 5.489 3.70099L5.468 3.80999C4.529 3.67199 3.696 3.47499 2.891 3.22199C3.785 2.26899 4.936 1.56899 6.233 1.23199ZM2.203 4.08499C3.077 4.38499 4.112 4.63299 5.18 4.78399L5.273 4.79499C5.134 5.59399 5.044 6.52699 5.023 7.47799V7.49899H1.02C1.112 6.22499 1.537 5.06599 2.203 4.08499ZM2.202 11.915C2.162 11.928 2.118 11.937 2.078 11.95L2.202 11.915C1.541 10.953 1.112 9.78499 1.02 8.52299L1.019 8.49999H5.022C5.044 9.47199 5.134 10.406 5.288 11.318L5.272 11.204C4.158 11.361 3.161 11.601 2.202 11.915ZM6.283 14.779C4.936 14.429 3.785 13.729 2.893 12.781L2.89 12.777C3.612 12.54 4.482 12.335 5.375 12.2L5.468 12.189C5.696 13.192 5.976 14.057 6.323 14.887L6.283 14.779Z" fill="rgb(34, 34, 34)" fill-opacity="1.00"/><path d="M14.513 10.354L14.52 10.365L15.179 9.515L14.474 8.81L13.619 9.5C13.332 9.315 12.997 9.175 12.639 9.098L12.62 9.095L12.5 8H11.5L11.365 9.07C10.987 9.152 10.651 9.294 10.354 9.487L10.365 9.48L9.5 8.81L8.81 9.5L9.5 10.375C9.314 10.662 9.172 10.997 9.093 11.354L9.09 11.375L8 11.499V12.499L9.065 12.634C9.145 13.008 9.287 13.339 9.476 13.634L8.811 14.484L9.501 15.179L10.371 14.499C10.658 14.688 10.991 14.832 11.351 14.911L11.371 14.914L11.501 15.999H12.501L12.631 14.934C13.009 14.853 13.344 14.71 13.642 14.517L13.631 14.524L14.465 15.179L15.17 14.469L14.5 13.624C14.688 13.337 14.832 13.004 14.911 12.645L14.914 12.624L15.998 12.499V11.499L14.928 11.364C14.846 10.986 14.704 10.651 14.511 10.353L14.513 10.354ZM12.001 13.334C11.265 13.334 10.668 12.737 10.668 12C10.668 11.263 11.264 10.666 12.001 10.666C12.737 10.666 13.333 11.263 13.333 12C13.333 12.737 12.737 13.334 12.001 13.334Z" fill="rgb(34, 34, 34)" fill-opacity="1.00"/></g><defs><clipPath id="clip0_281_990"><rect width="16" height="16" fill="rgb(34, 34, 34)"/></clipPath></defs></svg>

<!-- Generated by Trend Micro Style Portal -->
<svg version="1.1" xmlns="http://www.w3.org/2000/svg" width="16" height="16" viewBox="0 0 16 16">
  <title>network-configuration</title>
  <path fill="rgb(34,34,34)" d="M2.201 11.914v0z"></path>
  <path fill="rgb(34,34,34)" d="M8.022 14.999c-0.007 0-0.014 0.001-0.022 0.001-0.164 0-0.324-0.013-0.486-0.024-0.404-0.83-0.756-1.803-1.005-2.815l-0.021-0.103c0.17-0.015 0.344-0.013 0.516-0.024-0-0.012-0.003-0.023-0.003-0.034 0-0.329 0.036-0.648 0.097-0.959-0.272 0.013-0.55 0.014-0.817 0.037-0.141-0.76-0.234-1.649-0.258-2.555v-0.023c0 0 1.303-0 2.413 0 0.407-0.414 0.891-0.747 1.421-1h-3.833c0.023-0.891 0.113-1.744 0.259-2.578 0.563 0.049 1.134 0.078 1.718 0.078s1.156-0.029 1.719-0.078c0.139 0.748 0.23 1.622 0.255 2.513 0.312-0.139 0.639-0.25 0.981-0.323-0.035-0.832-0.111-1.642-0.244-2.431l0.016 0.114c1.115-0.156 2.111-0.396 3.070-0.71 0.662 0.962 1.091 2.13 1.182 3.392l0.001 0.022h-0.838c0.709 0.338 1.318 0.838 1.795 1.452 0.037-0.313 0.062-0.63 0.062-0.952 0-4.418-3.582-8-8-8s-8 3.582-8 8c0 4.418 3.582 8 8 8 0.323 0 0.64-0.025 0.952-0.062-0.351-0.272-0.663-0.585-0.931-0.939zM13.923 4.050l-0.125 0.036c0.040-0.013 0.084-0.022 0.125-0.036zM9.717 1.22c1.347 0.349 2.499 1.050 3.39 1.998l0.003 0.004c-0.724 0.238-1.593 0.444-2.487 0.577l-0.090 0.011c-0.228-1.002-0.508-1.867-0.856-2.697l0.040 0.107zM7.516 1.024c0.161-0.011 0.32-0.024 0.484-0.024s0.325 0.014 0.486 0.024c0.404 0.831 0.756 1.803 1.004 2.816l0.021 0.102c-0.498 0.043-1.001 0.069-1.511 0.069s-1.013-0.026-1.51-0.070c0.261-1.080 0.603-2.023 1.026-2.917zM6.233 1.232l0.049-0.011 0.001-0.001c-0.307 0.723-0.588 1.588-0.794 2.481l-0.021 0.109c-0.939-0.138-1.772-0.335-2.577-0.588 0.894-0.953 2.045-1.653 3.342-1.99zM2.203 4.085c0.874 0.3 1.909 0.548 2.977 0.699l0.093 0.011c-0.139 0.799-0.229 1.732-0.25 2.683v0.021h-4.003c0.092-1.274 0.517-2.433 1.183-3.414zM2.202 11.915c-0-0 0 0 0 0-0.040 0.013-0.084 0.022-0.124 0.035l0.124-0.035c-0.661-0.962-1.090-2.13-1.182-3.392l-0.001-0.023h4.003c0.022 0.972 0.112 1.906 0.266 2.818l-0.016-0.114c-1.114 0.157-2.111 0.397-3.070 0.711zM6.283 14.779c-1.347-0.35-2.498-1.050-3.39-1.998l-0.003-0.004c0.722-0.237 1.592-0.442 2.485-0.577l0.093-0.011c0.228 1.003 0.508 1.868 0.855 2.698l-0.040-0.108z"></path>
  <path fill="rgb(34,34,34)" d="M14.513 10.354l0.007 0.011 0.659-0.85-0.705-0.705-0.855 0.69c-0.287-0.185-0.622-0.325-0.98-0.402l-0.019-0.003-0.12-1.095h-1l-0.135 1.070c-0.378 0.082-0.714 0.224-1.011 0.417l0.011-0.007-0.865-0.67-0.69 0.69 0.69 0.875c-0.186 0.287-0.328 0.622-0.407 0.979l-0.003 0.021-1.090 0.124v1l1.065 0.135c0.080 0.374 0.222 0.705 0.411 1l-0.665 0.85 0.69 0.695 0.87-0.68c0.287 0.189 0.62 0.333 0.98 0.412l0.020 0.003 0.13 1.085h1l0.13-1.065c0.378-0.081 0.713-0.224 1.011-0.417l-0.011 0.007 0.834 0.655 0.705-0.71-0.67-0.845c0.188-0.287 0.332-0.62 0.411-0.979l0.003-0.021 1.084-0.125v-1l-1.070-0.135c-0.082-0.378-0.224-0.713-0.417-1.011zM12.001 13.334c-0.736 0-1.333-0.597-1.333-1.334s0.596-1.334 1.333-1.334c0.736 0 1.332 0.597 1.332 1.334s-0.596 1.334-1.332 1.334z"></path>
</svg>
